Papirus/64x64/apps/desura.svg

<?xml version="1.0" encoding="UTF-8" standalone="no"?>
<svg xmlns="http://www.w3.org/2000/svg" height="64" width="64" version="1">
 <path style="opacity:0.2" d="m 51.046053,8.8067634 c -0.16,2.7484066 -0.800962,5.7928136 -1.941405,8.9922206 -0.25556,0.716942 -0.489281,1.357544 -0.519521,1.425784 -0.03536,0.07996 0.14862,0.21778 0.554681,0.464841 1.400964,-3.96481 2.024605,-7.678018 1.906265,-10.8828256 z M 6.2219476,22.256995 C 5.971347,22.786996 5.9145469,23.500998 6.1009473,24.036999 6.3585479,24.779001 7.0515495,25.303002 8.0111518,25.553003 8.2329523,25.163002 8.4847529,24.777001 8.7883536,24.417 l 0.5392013,-0.650002 -0.7228017,-0.086 c -1.1682027,-0.14 -2.0046047,-0.662001 -2.3828056,-1.424003 z m 50.3941184,6.781216 c -0.0182,0.0441 -0.0138,0.10268 -0.03516,0.14454 l -0.17578,0.339841 0.3125,0.503901 c 0.02056,0.03324 0.04512,0.08626 0.0664,0.1211 0.0017,-0.34546 -0.05848,-0.716901 -0.16796,-1.109382 z m -49.2461157,0.0156 c -0.1053123,0.387701 -0.1647344,0.761722 -0.1640624,1.105462 0.023526,-0.03856 0.051556,-0.0962 0.074218,-0.13282 L 7.5926068,29.522552 7.4168244,29.182711 c -0.020002,-0.03932 -0.029704,-0.08738 -0.046874,-0.1289 z M 4.1081426,39.135834 c -0.1898244,1.077543 -0.1162302,1.959125 0.2304606,2.687607 0.3159207,0.663901 1.1977828,1.462523 1.7617241,1.597664 l 0.2070405,0.05078 c -3e-5,-0.02568 3.8e-6,-0.0445 0,-0.07032 l 0,-1.929684 L 6.1003273,41.4211 C 5.537526,41.2831 4.6557239,40.485098 4.3397232,39.821096 4.2377229,39.605096 4.1655228,39.375095 4.1093226,39.133094 Z m 2.1992052,4.336011 0,1.929684 c 5.982e-4,3.96001 0.3069607,6.438815 0.9609423,7.773418 0.3065007,0.625602 0.9314421,1.257363 1.4687634,1.480464 0.834382,0.346481 2.0488045,0.269681 2.8984065,-0.1836 l 0.308601,-0.167961 0.332041,0.347661 c 2.775206,2.901407 7.285617,5.337412 11.976628,6.468815 1.648544,0.397601 4.14761,0.756562 5.859414,0.839842 2.698806,0.13136 5.472013,-0.06372 8.070419,-0.562501 2.400605,-0.460821 4.47221,-1.134303 6.703215,-2.183605 2.415406,-1.136023 4.17201,-2.315206 6.019615,-4.03521 l 1.046882,-0.972662 0.281261,0.1875 c 0.765402,0.506402 2.149805,0.626142 3.027407,0.261721 0.537281,-0.223121 1.162243,-0.854862 1.468763,-1.480464 0.653542,-1.333823 0.957943,-3.773608 0.960943,-7.699218 l 0,-2.000004 c -0.003,3.925609 -0.307401,6.365415 -0.960943,7.699218 -0.30652,0.625601 -0.931482,1.257363 -1.468763,1.480463 -0.877582,0.364421 -2.262005,0.244681 -3.027407,-0.26172 l -0.281261,-0.187501 -1.046882,0.972662 c -1.847525,1.720045 -3.604209,2.899207 -6.019615,4.03521 -2.231005,1.049302 -4.30261,1.722784 -6.703215,2.183605 -2.598406,0.498761 -5.371413,0.693862 -8.070419,0.562501 -1.711864,-0.08328 -4.21081,-0.442241 -5.859414,-0.839842 -4.691011,-1.136002 -9.201422,-3.572008 -11.976628,-6.472015 L 11.944101,52.300305 11.6355,52.468306 c -0.849802,0.454001 -2.0642045,0.530001 -2.8986065,0.184 C 8.1996922,52.428306 7.5746908,51.796304 7.2682901,51.172303 6.6184885,49.8463 6.3118878,47.384294 6.3072878,43.468285 Z M 59.889474,39.133834 c -0.05612,0.241361 -0.128381,0.473002 -0.230461,0.687502 -0.315961,0.663902 -1.197723,1.462484 -1.761724,1.597664 l -0.20704,0.05078 0,2.000005 0.20704,-0.05078 c 0.564001,-0.135181 1.445763,-0.933763 1.761724,-1.597664 0.346661,-0.728382 0.420281,-1.609964 0.230461,-2.687607 z"/>
 <path style="fill:#ee3434" d="M 30.114004,60.959083 C 28.402,60.875083 25.899994,60.517082 24.25199,60.121081 19.561179,58.989079 15.053168,56.553073 12.277962,53.653066 l -0.332081,-0.347181 -0.310241,0.165481 c -0.849602,0.454001 -2.0612045,0.530001 -2.8956065,0.184 C 8.2026323,53.431366 7.5754308,52.801364 7.2688301,52.175363 6.6148285,50.84136 6.3082278,48.359354 6.3076278,44.399344 l -2e-4,-1.928004 -0.2074005,-0.048 C 5.536026,42.28734 4.6552239,41.487338 4.3394232,40.823336 3.6636216,39.403333 3.9894224,37.427328 5.3846256,34.481321 5.8020266,33.599319 6.6940287,31.973315 7.2810301,31.025313 L 7.5922308,30.523312 7.4190304,30.181311 c -0.5694013,-1.118003 0.015,-3.156007 1.3682032,-4.766011 l 0.5426013,-0.646002 -0.7240017,-0.086 C 7.3232302,24.529298 6.410428,23.929296 6.1010273,23.039294 5.9006268,22.463293 5.972427,21.671291 6.2742277,21.13329 6.5992285,20.555288 8.1748322,19.063285 9.0772343,18.480084 10.633438,17.474681 12.579243,16.647679 14.882648,16.012878 l 1.308803,-0.360801 0.024,-2.681606 c 0.0254,-2.858607 0.1092,-3.8218093 0.498601,-5.7374138 0.498401,-2.4516058 1.624004,-5.2316123 2.351406,-5.8072137 0.567601,-0.44944105 1.482603,-0.55950131 2.116605,-0.2546006 0.536421,0.2578806 0.829302,0.6252415 1.268483,1.5918037 0.461321,1.0153224 2.845806,5.5438131 3.981209,7.5612174 l 0.710402,1.262203 1.364923,0.331721 c 0.750702,0.182445 2.098805,0.537461 2.995607,0.788942 0.896922,0.251481 1.646644,0.457221 1.666024,0.457221 0.0194,0 0.03532,-0.189416 0.03532,-0.420921 0,-0.828862 0.472441,-1.603684 1.218523,-1.998385 0.881442,-0.413881 1.845984,-0.20788 2.484006,0.100715 0.370341,0.179772 1.007782,0.567961 1.416583,0.862622 0.408761,0.29468 0.756682,0.535781 0.773162,0.535781 0.11578,0 5.723613,-6.1688146 6.970416,-7.6678181 0.438501,-0.5271812 0.919842,-1.1013626 1.069663,-1.275983 0.880402,-1.0262024 2.616206,-0.8302819 3.256007,0.3675009 0.199401,0.3732808 0.526302,1.9549246 0.631542,3.0554072 0.330321,3.455008 -0.332421,7.626218 -1.918885,12.076828 -0.25556,0.716942 -0.489381,1.359384 -0.519621,1.427624 -0.04264,0.09642 0.12984,0.23146 0.772542,0.604921 0.942962,0.547921 2.408806,1.514844 3.236208,2.134805 0.889302,0.666242 2.543806,2.291006 3.007207,2.952807 1.107222,1.581984 1.491863,3.255408 0.979682,4.26201 l -0.1732,0.340441 0.31128,0.503021 c 0.586882,0.948362 1.478904,2.573606 1.896285,3.455208 1.395083,2.946207 1.720884,4.923212 1.045282,6.342815 -0.315961,0.663902 -1.196623,1.463584 -1.760644,1.598784 l -0.2074,0.04972 -0.0012,2.004605 c -0.003,3.925609 -0.306641,6.364815 -0.960183,7.698618 -0.30652,0.625601 -0.933942,1.256683 -1.471223,1.479783 -0.877582,0.364421 -2.261605,0.244821 -3.027007,-0.26158 l -0.281001,-0.185921 -1.043782,0.971722 c -1.847525,1.720045 -3.606409,2.898407 -6.021815,4.03441 -2.231005,1.049302 -4.30361,1.725124 -6.704215,2.186005 -2.598406,0.498761 -5.370213,0.691022 -8.069219,0.559681 z"/>
 <path style="opacity:0.2" d="m 32.000008,54.23907 c 0,1.614004 -1.578004,3.760009 -3.338008,3.760009 -1.760004,0 -2.662006,-2.224005 -2.662006,-3.838009 0,-1.613584 1.653604,-0.711022 3.414208,-0.711022 1.760604,0 2.585806,-0.825442 2.585806,0.788142 z"/>
 <ellipse style="opacity:0.2" rx="14" ry="12" cy="33.999" cx="32"/>
 <ellipse style="fill:#ffffff" rx="14" ry="12" cy="32.999" cx="32"/>
 <path style="fill:#272727" d="m 32.000008,26.999004 a 4.0000094,5.0000117 0 0 0 -1.380003,0.31 2.6666063,2.5000059 0 0 1 1.380003,2.190005 2.6666063,2.5000059 0 0 1 -2.666006,2.500006 2.6666063,2.5000059 0 0 1 -1.322003,-0.33 4.0000094,5.0000117 0 0 0 -0.012,0.33 4.0000094,5.0000117 0 0 0 4.000009,5.000012 4.0000094,5.0000117 0 0 0 4.00001,-5.000012 4.0000094,5.0000117 0 0 0 -4.00001,-5.000011 z"/>
 <path style="fill:#ffffff" d="m 32.000008,53.239065 c 0,1.614004 -1.578004,3.760009 -3.338008,3.760009 -1.760004,0 -2.662006,-2.224005 -2.662006,-3.838009 0,-1.613584 1.653604,-0.711022 3.414208,-0.711022 1.760604,0 2.585806,-0.825442 2.585806,0.788142 z"/>
 <path style="fill:#791414" d="m 27.641998,51.823062 c -3.408008,-0.008 -6.746016,-0.804002 -9.642023,-2.302005 3.062007,2.246005 6.902016,3.476008 10.866026,3.478008 9.462022,0 17.13404,-3.554009 17.13404,-12.000029 -2.328205,8.34162 -9.645623,10.599425 -18.357643,10.823426 z"/>
 <path style="opacity:0.2" d="m 17.999975,17.294183 0.0172,-2.067205 c 0.0184,-2.203405 0.079,-2.946007 0.360401,-4.42261 0.360401,-1.8898043 1.173803,-4.0328094 1.700404,-4.4766104 0.410301,-0.3464008 1.071643,-0.431241 1.530044,-0.1962725 0.387701,0.1987945 0.599381,0.4819811 0.916822,1.2270429 0.333421,0.7826818 2.056805,4.27341 2.877407,5.828613 l 0.512001,0.973003 c 1.008002,3.223207 -7.239817,4.874811 -7.914019,3.134007 z"/>
 <path style="fill:#ffffff" d="m 17.999975,16.294178 0.0172,-2.067204 c 0.0184,-2.203406 0.079,-2.946007 0.360401,-4.4226108 0.360401,-1.8898044 1.173803,-4.0328095 1.700404,-4.4766105 0.410301,-0.3464008 1.071643,-0.431241 1.530044,-0.1962725 0.387701,0.1987945 0.599381,0.4819811 0.916822,1.2270429 0.333421,0.7826818 2.056805,4.2734099 2.877407,5.8286139 l 0.512001,0.973002 c 1.008002,3.223208 -7.239817,4.875612 -7.914019,3.134007 z"/>
 <path style="opacity:0.2" d="m 46.156041,19.590989 0.618002,-2.011605 c 0.660001,-2.144605 0.836002,-2.877807 1.046002,-4.36741 0.272001,-1.906405 0.230001,-4.1474098 -0.084,-4.6812113 -0.246,-0.4166009 -0.788002,-0.6282014 -1.254003,-0.4894011 -0.392001,0.1174003 -0.662001,0.3512008 -1.162003,1.0132026 -0.526001,0.695401 -3.074007,3.7504088 -4.25401,5.1010118 l -0.738641,0.845062 c -1.851345,2.935207 4.717011,6.150814 5.829213,4.590411 z"/>
 <path style="fill:#ffffff" d="m 46.156041,18.591184 0.618002,-2.011805 c 0.660001,-2.144605 0.836002,-2.877807 1.046002,-4.36741 0.272001,-1.906405 0.230001,-4.1474099 -0.084,-4.6812112 -0.246,-0.4166009 -0.788002,-0.6282014 -1.254003,-0.4894011 -0.392001,0.1174003 -0.662001,0.3512008 -1.162003,1.0132024 -0.526001,0.6954016 -3.074007,3.7504089 -4.25401,5.1010119 l -0.738641,0.845062 c -1.851345,2.935207 4.717011,6.150815 5.829213,4.590411 z"/>
 <path style="fill:#ffffff;fill-opacity:1;opacity:0.2" d="M 20.099609 1.015625 C 19.720658 1.0612076 19.350207 1.2010607 19.066406 1.4257812 C 18.339004 2.0013827 17.213245 4.7808161 16.714844 7.2324219 C 16.325443 9.1480264 16.240244 10.112096 16.214844 12.970703 L 16.191406 15.652344 L 14.882812 16.013672 C 12.579408 16.648473 10.634329 17.475066 9.078125 18.480469 C 8.1757229 19.06367 6.5984383 20.554811 6.2734375 21.132812 C 6.0103037 21.601885 5.9362649 22.257047 6.0507812 22.800781 C 6.0977212 22.561306 6.1639995 22.327901 6.2734375 22.132812 C 6.5984383 21.554811 8.1757229 20.06367 9.078125 19.480469 C 10.634329 18.475066 12.579408 17.648473 14.882812 17.013672 L 16.191406 16.652344 L 16.214844 13.970703 C 16.240244 11.112096 16.325443 10.148026 16.714844 8.2324219 C 17.213245 5.7808161 18.339004 3.0013827 19.066406 2.4257812 C 19.634007 1.9763401 20.547639 1.8669743 21.181641 2.171875 C 21.718062 2.4297556 22.011991 2.7971097 22.451172 3.7636719 C 22.912493 4.7789943 25.296238 9.3068146 26.431641 11.324219 L 27.142578 12.585938 L 28.507812 12.917969 C 29.258515 13.100414 30.605151 13.45555 31.501953 13.707031 C 32.398875 13.958512 33.148589 14.164063 33.167969 14.164062 C 33.187369 14.164062 33.203125 13.975646 33.203125 13.744141 C 33.203125 12.915279 33.675793 12.140795 34.421875 11.746094 C 35.303317 11.332213 36.268228 11.537108 36.90625 11.845703 C 37.276591 12.025475 37.913465 12.414323 38.322266 12.708984 C 38.731027 13.003664 39.079223 13.244141 39.095703 13.244141 C 39.211483 13.244141 44.819603 7.0751754 46.066406 5.5761719 C 46.504907 5.0489907 46.986898 4.4754017 47.136719 4.3007812 C 48.017121 3.2745789 49.752777 3.4701859 50.392578 4.6679688 C 50.591979 5.0412495 50.918198 6.6221737 51.023438 7.7226562 C 51.059755 8.1025227 51.079396 8.4959769 51.091797 8.8925781 C 51.104928 8.1451208 51.089722 7.4159639 51.023438 6.7226562 C 50.918198 5.6221737 50.591979 4.0412495 50.392578 3.6679688 C 49.752777 2.4701859 48.017121 2.2745789 47.136719 3.3007812 C 46.986898 3.4754017 46.504907 4.0489907 46.066406 4.5761719 C 44.819603 6.0751754 39.211483 12.244141 39.095703 12.244141 C 39.079223 12.244141 38.731027 12.003664 38.322266 11.708984 C 37.913465 11.414323 37.276591 11.025475 36.90625 10.845703 C 36.268228 10.537108 35.303317 10.33026 34.421875 10.744141 C 33.675793 11.138842 33.203125 11.915279 33.203125 12.744141 C 33.203125 12.975646 33.187369 13.164062 33.167969 13.164062 C 33.148589 13.164062 32.398875 12.958512 31.501953 12.707031 C 30.605151 12.45555 29.258515 12.100414 28.507812 11.917969 L 27.142578 11.585938 L 26.431641 10.324219 C 25.296238 8.3068145 22.912493 3.7789943 22.451172 2.7636719 C 22.011991 1.7971097 21.718062 1.4297556 21.181641 1.171875 C 20.86464 1.0194246 20.47856 0.97004239 20.099609 1.015625 z M 48.847656 20.509766 C 48.752433 20.771441 48.601162 21.19416 48.585938 21.228516 C 48.543298 21.324936 48.71472 21.45857 49.357422 21.832031 C 50.300384 22.379952 51.766348 23.346836 52.59375 23.966797 C 53.483052 24.633039 55.138161 26.258121 55.601562 26.919922 C 56.242121 27.835143 56.632726 28.777814 56.755859 29.607422 C 56.931125 28.602135 56.519926 27.232067 55.601562 25.919922 C 55.138161 25.258121 53.483052 23.633039 52.59375 22.966797 C 51.766348 22.346836 50.300384 21.379952 49.357422 20.832031 C 49.102494 20.683898 48.970543 20.595345 48.847656 20.509766 z M 8.5878906 25.679688 C 7.5803911 26.989269 7.0692692 28.511754 7.2460938 29.597656 C 7.3991993 28.588276 7.9439881 27.419138 8.7871094 26.416016 L 9.3300781 25.769531 L 8.6054688 25.683594 C 8.5991259 25.682832 8.5942154 25.680471 8.5878906 25.679688 z M 7.3359375 30.9375 L 7.28125 31.025391 C 6.6942486 31.973393 5.8021666 33.598467 5.3847656 34.480469 C 4.3195538 36.729691 3.8818706 38.412213 4.0332031 39.714844 C 4.1339737 38.575628 4.5725682 37.197397 5.3847656 35.482422 C 5.8021666 34.60042 6.6942486 32.973393 7.28125 32.025391 L 7.5917969 31.523438 L 7.4199219 31.181641 C 7.3821209 31.107419 7.3636809 31.019436 7.3359375 30.9375 z M 56.667969 30.945312 C 56.640152 31.025221 56.619254 31.108485 56.582031 31.181641 L 56.408203 31.523438 L 56.71875 32.025391 C 57.305632 32.973753 58.197853 34.598867 58.615234 35.480469 C 59.427362 37.195561 59.865999 38.575404 59.966797 39.714844 C 60.118046 38.412107 59.680354 36.729843 58.615234 34.480469 C 58.197853 33.598867 57.305632 31.973753 56.71875 31.025391 L 56.667969 30.945312 z"/>
</svg>

<?xml version="1.0" encoding="UTF-8" standalone="no"?>
<svg xmlns="http://www.w3.org/2000/svg" height="64" width="64" version="1">
 <path style="fill:#ee3434" d="m30.114 60.959c-1.712-.084-4.214-.442-5.862-.838-4.691-1.132-9.199-3.568-11.974-6.468l-.33208-.34718-.31024.16548c-.84960 0.454-2.0612 0.53-2.8956.184-.5378-.224-1.165-.854-1.4716-1.48-.6540-1.334-.9606-3.816-.9612-7.776l-.0002-1.928-.20740-.048c-.5640-.136-1.4448-.936-1.7606-1.6-.6758-1.42-0.35-3.396 1.0452-6.342.4174-.882 1.3094-2.508 1.8964-3.456l.3112-.502-.1732-.342c-.56940-1.118.015-3.156 1.3682-4.766l.54260-0.646-0.724-.086c-1.2826-.154-2.1954-.754-2.5048-1.644-.2004-.576-.1286-1.368.1732-1.906.3250-.578 1.9006-2.07 2.803-2.653 1.5558-1.005 3.5018-1.832 5.8058-2.467l1.3088-.36080.024-2.6816c.0254-2.8586.1092-3.8218.49860-5.7374.49840-2.4516 1.624-5.2316 2.3514-5.8072.56760-.44944 1.4826-.55950 2.1166-.25460.53642.25788.82930.62524 1.2685 1.5918.46132 1.0153 2.8458 5.5438 3.9812 7.5612l.71040 1.2622 1.3649.33172c.75070.18244 2.0988.53746 2.9956.78894.89692.25148 1.6466.45722 1.666.45722s.03532-.18942.03532-.42092c0-.82886.47244-1.6037 1.2185-1.9984.88144-.41388 1.846-.20788 2.484.10072.37034.17977 1.0078.56796 1.4166.86262.40876.29468.75668.53578.77316.53578.11578 0 5.7236-6.1688 6.9704-7.6678.43850-.52718.91984-1.1014 1.0697-1.276.88040-1.0262 2.6162-.83028 3.256.36750.19940.37328.52630 1.9549.63154 3.0554.33032 3.455-.33242 7.6262-1.9189 12.077-.25556.71694-.48938 1.3594-.51962 1.4276-.04264.09642.12984.23146.77254.60492.94296.54792 2.4088 1.5148 3.2362 2.1348.88930.66624 2.5438 2.291 3.0072 2.9528 1.1072 1.582 1.4919 3.2554.97968 4.262l-.1732.34044.31128.50302c.58688.94836 1.4789 2.5736 1.8963 3.4552 1.3951 2.9462 1.7209 4.9232 1.0453 6.3428-.31596.66390-1.1966 1.4636-1.7606 1.5988l-.2074.04972-.0012 2.0046c-.003 3.9256-.30664 6.3648-.96018 7.6986-.30652.62560-.93394 1.2567-1.4712 1.4798-.87758.36442-2.2616.24482-3.027-.26158l-0.281-.18592-1.0438.97172c-1.8475 1.72-3.6064 2.8984-6.0218 4.0344-2.231 1.0493-4.3036 1.7251-6.7042 2.186-2.5984.49876-5.3702.69102-8.0692.55968z"/>
 <path style="opacity:.2" d="m32 54.239c0 1.614-1.578 3.76-3.338 3.76s-2.662-2.224-2.662-3.838c0-1.6136 1.6536-.71102 3.4142-.71102s2.5858-.82544 2.5858.78814z"/>
 <ellipse style="opacity:.2" rx="14" ry="12" cy="33.999" cx="32"/>
 <ellipse style="fill:#ffffff" rx="14" ry="12" cy="32.999" cx="32"/>
 <path style="fill:#272727" d="m32 26.999a4 5 0 0 0 -1.38 .31 2.6666 2.5 0 0 1 1.38 2.19 2.6666 2.5 0 0 1 -2.666 2.5 2.6666 2.5 0 0 1 -1.322 -.33 4 5 0 0 0 -.012 .33 4 5 0 0 0 4 5 4 5 0 0 0 4 -5 4 5 0 0 0 -4 -5z"/>
 <path style="fill:#ffffff" d="m32 53.239c0 1.614-1.578 3.76-3.338 3.76s-2.662-2.224-2.662-3.838c0-1.6136 1.6536-.71102 3.4142-.71102s2.5858-.82544 2.5858.78814z"/>
 <path style="fill:#791414" d="m27.642 51.823c-3.408-.008-6.746-0.804-9.642-2.302 3.062 2.246 6.902 3.476 10.866 3.478 9.462 0 17.134-3.554 17.134-12-2.3282 8.3416-9.6456 10.599-18.358 10.823z"/>
 <path style="opacity:.2" d="m18 17.294.0172-2.0672c.0184-2.2034.079-2.946.36040-4.4226.36040-1.8898 1.1738-4.0328 1.7004-4.4766.41030-.34640 1.0716-.43124 1.53-.19627.38770.19879.59938.48198.91682 1.227.33342.78268 2.0568 4.2734 2.8774 5.8286l0.512 0.973c1.008 3.2232-7.2398 4.8748-7.914 3.134z"/>
 <path style="fill:#ffffff" d="m18 16.294.0172-2.0672c.0184-2.2034.079-2.946.36040-4.4226.36040-1.8898 1.1738-4.0328 1.7004-4.4766.41030-.34640 1.0716-.43124 1.53-.19627.38770.19879.59938.48198.91682 1.227.33342.78268 2.0568 4.2734 2.8774 5.8286l0.512 0.973c1.008 3.2232-7.2398 4.8756-7.914 3.134z"/>
 <path style="opacity:.2" d="m46.156 19.591 0.618-2.0116c0.66-2.1446 0.836-2.8778 1.046-4.3674 0.272-1.9064 0.23-4.1474-.084-4.6812-.246-.41660-0.788-.62820-1.254-.48940-0.392.11740-0.662.35120-1.162 1.0132-0.526.69540-3.074 3.7504-4.254 5.101l-.73864.84506c-1.8513 2.9352 4.717 6.1508 5.8292 4.5904z"/>
 <path style="fill:#ffffff" d="m46.156 18.591 0.618-2.0118c0.66-2.1446 0.836-2.8778 1.046-4.3674 0.272-1.9064 0.23-4.1474-.084-4.6812-.246-.41660-0.788-.62820-1.254-.48940-0.392.11740-0.662.35120-1.162 1.0132-0.526.69540-3.074 3.7504-4.254 5.101l-.73864.84506c-1.8513 2.9352 4.717 6.1508 5.8292 4.5904z"/>
 <path style="opacity:.2;fill:#ffffff" d="m20.1 1.0156c-.379.0456-.750.1855-1.034.4102-.727.5756-1.853 3.355-2.351 5.8066-.390 1.9156-.475 2.8796-0.5 5.7386l-.024 2.681-1.308.362c-2.304.634-4.249 1.461-5.8049 2.466-.9024.584-2.4797 2.075-2.8047 2.653-.2631.469-.3371 1.124-.2226 1.668.0469-.240.1132-.473.2226-.668.3250-.578 1.9023-2.069 2.8047-2.653 1.5559-1.005 3.5009-1.832 5.8049-2.466l1.308-.362.024-2.681c.025-2.859.110-3.823 0.5-5.7386.498-2.4516 1.624-5.231 2.351-5.8066.568-.4495 1.482-.5588 2.116-.2539.536.2579.830.6252 1.269 1.5918.461 1.0153 2.845 5.5431 3.981 7.5603l.711 1.262 1.365.332c.751.182 2.097.538 2.994.789.897.252 1.647.457 1.666.457s.035-.188.035-.420c0-.829.473-1.603 1.219-1.998.881-.414 1.846-.209 2.484 0.1.371.179 1.007.568 1.416.863s.757.535.774.535c.115 0 5.724-6.1688 6.97-7.6678.439-.5272.921-1.1008 1.071-1.2754.880-1.0262 2.616-.8306 3.256.3672.199.3732.525 1.9542.630 3.0547.037.3798.056.7733.069 1.1699.013-.7475-.002-1.4766-.069-2.1699-.105-1.1005-.431-2.6815-.630-3.0547-.640-1.1978-2.376-1.3934-3.256-.3672-.150.1746-.632.7482-1.071 1.2754-1.246 1.499-6.855 7.6678-6.97 7.6678-.017 0-.365-.240-.774-.535s-1.045-.684-1.416-.863c-.638-.309-1.603-.516-2.484-.102-.746.395-1.219 1.171-1.219 2 0 .232-.016.420-.035.420s-.769-.205-1.666-.457c-.897-.251-2.243-.607-2.994-.789l-1.365-.332-.711-1.262c-1.136-2.0172-3.52-6.545-3.981-7.5603-.439-.9666-.733-1.3339-1.269-1.5918-.317-.1525-.703-.20186-1.082-.1563zm28.748 19.494c-.096.261-.247.684-.262.719-.043.096.129.230.771.603.943.548 2.409 1.515 3.237 2.135.889.666 2.544 2.291 3.008 2.953.640.915 1.031 1.858 1.154 2.687.175-1.005-.236-2.375-1.154-3.687-.464-.662-2.119-2.287-3.008-2.953-.828-.620-2.294-1.587-3.237-2.135-.255-.148-.386-.237-.509-.322zm-40.26 5.17c-1.0075 1.309-1.5186 2.832-1.3418 3.918.1531-1.01.6979-2.179 1.541-3.182l.5430-.646-.7246-.086c-.0064-.001-.0113-.004-.0176-.004zm-1.252 5.258l-.0547.087c-.5870.948-1.479 2.573-1.8964 3.455-1.0652 2.25-1.5029 3.932-1.3516 5.235.1008-1.139.5394-2.518 1.3516-4.233.4174-.882 1.3094-2.509 1.8964-3.457l.3106-.502-.1719-.341c-.0378-.075-.0562-.163-.0840-.244zm49.332.007c-.028.080-.049.163-.086.237l-.174.341.311.502c.587.949 1.479 2.574 1.896 3.455.812 1.716 1.251 3.095 1.352 4.235.151-1.303-.287-2.985-1.352-5.235-.417-.881-1.309-2.506-1.896-3.455l-.051-.080z"/>
 <path style="opacity:.2" d="m51.092 8.8904c-.05194 2.9781-.71783 6.3515-1.9863 9.9102-.25556.71694-.48929 1.3595-.51953 1.4277-.02573.05817.07479.15107.26172.28125.09392-.25808.13092-.35299.25781-.70898 1.4121-3.9614 2.0868-7.6995 1.9863-10.91zm-45.041 13.911c-.082277.42064-.076846.87145.050781 1.2383.30787.88560 1.2137 1.483 2.4863 1.6406.067352-.08755.12749-.17833.19922-.26367l.54297-.64648-.72461-.08594c-1.2826-.154-2.1945-.75453-2.5039-1.6445-.025675-.0738-.033953-.15838-.050781-.23828zm1.1953 6.7969c-.076376.50352-.040219.95637.089844 1.3398l.2559-.415-.1719-.342c-.0879-.172-.1395-.372-.1738-.584zm49.51.0098c-.03604.20673-.08647.40252-.17383.57422l-.17383.34180.25977.42187c.13350-.38351.16213-.83772.08789-1.3379zm-52.723 10.105c-.072449.81803.024172 1.5178.30664 2.1113.31580 0.664 1.1958 1.4636 1.7598 1.5996l.20703.04687.00195 1.9277c.0006 3.96.30694 6.4433.96094 7.7773.30660 0.626.93330 1.2565 1.4707 1.4805.83440 0.346 2.0449.26845 2.8945-.18555l.31055-.16406.33203.34570c2.7752 2.9 7.2838 5.3367 11.975 6.4688 1.648 0.396 4.1493.75389 5.8613.83789 2.699.13134 5.47-.05983 8.0684-.55859 2.4006-.46088 4.4741-1.1362 6.7051-2.1855 2.4154-1.136 4.174-2.3151 6.0215-4.0352l1.043-.97266.28125.1875c.76540.50640 2.1498.62419 3.0273.25977.53728-.2231 1.1642-.85292 1.4707-1.4785.65354-1.3338.95794-3.7736.96094-7.6992v-1c-.003 3.9256-.30740 6.3654-.96094 7.6992-.30652.62560-.93342 1.2574-1.4707 1.4805-.87758.36442-2.2619.24468-3.0273-.26172l-.28125-.18555-1.043.97070c-1.8475 1.72-3.6061 2.8992-6.0215 4.0352-2.231 1.0493-4.3045 1.7247-6.7051 2.1855-2.5984.49876-5.3694.68993-8.0684.55859-1.712-.084-4.2133-.44189-5.8613-.83789-4.6908-1.132-9.1994-3.5668-11.975-6.4668l-.33203-.34766-.31055.16406c-.84960 0.454-2.0601.53155-2.8945.18555-.53740-.224-1.1641-.85447-1.4707-1.4805-0.654-1.334-.96034-3.8154-.96094-7.7754l-.00195-1.9297-.20703-.04687c-.5633-.136-1.4433-.936-1.7591-1.6-.1601-.336-.2598-.707-.3066-1.111zm55.934.002c-.04684.40366-.14682.77355-.30664 1.1094-.31596.66390-1.1957 1.4625-1.7598 1.5977l-.20703.05078v1l.20703-.05078c.56402-.1352 1.4438-.93375 1.7598-1.5977.28231-.59320 0.379-1.2915.30664-2.1094z"/>
</svg>
